X: 2162
T: CULLEN HOUSE
Q: "Reel."
R: Reel.
%R: reel
B: James Kerr "Merry Melodies" v.2 p.19 #162
Z: 2016 John Chambers <jc:trillian.mit.edu>
M: C
L: 1/8
K: D
uB |\
A2(AF) AFdB | A2(AF) GEEB |\
A2(AF) AFdA | BGAG FDD ::\
f |\
ddfd adfd |
ddfd eBB \
[1 e | ddfd adfd | BdAd FDD :|\
[2 g | fdec dBAB | dfeg fdd |]
